( pcb2gcode 1.3.2 )
( Software-independent Gcode )

G94 ( Millimeters per minute feed rate. )
G21 ( Units == Millimeters. )

G90 ( Absolute coordinates. )
S10000 ( RPM spindle speed. )
G64 P0.01000 ( set maximum deviation from commanded toolpath )
F600.00000 ( Feedrate. )

F600.00000 ( Feedrate. )
M3 ( Spindle on clockwise. )
G04 P0 ( dwell for no time -- G64 should not smooth over this point )
G00 Z5.00000 ( retract )

G00 X28.69879 Y5.58078 ( rapid move to begin. )
F300.00000
G01 Z-0.05000
G04 P0 ( dwell for no time -- G64 should not smooth over this point )
F600.00000
X28.69879 Y5.58078
X23.10282 Y5.58078
X21.67077 Y7.01283
X21.67077 Y11.24079
X21.65207 Y11.41610
X21.60191 Y11.57490
X21.53262 Y11.70454
X21.42182 Y11.84178
X18.88182 Y14.38178
X18.74464 Y14.49255
X18.59683 Y14.56936
X18.43694 Y14.61586
X18.29061 Y14.63029
X17.10077 Y14.63077
X17.10077 Y20.84758
X17.20136 Y20.96015
X17.32419 Y21.17287
X17.40174 Y21.41684
X17.42523 Y21.66124
X17.39740 Y21.90518
X17.32795 Y22.11892
X17.20138 Y22.34140
X17.02889 Y22.53055
X16.84708 Y22.66266
X16.62366 Y22.76451
X16.37360 Y22.81933
X16.13844 Y22.81989
X15.88772 Y22.76827
X15.66331 Y22.66835
X15.47271 Y22.53055
X15.30022 Y22.34143
X15.17741 Y22.12870
X15.09986 Y21.88473
X15.07584 Y21.65077
X15.10421 Y21.39639
X15.18216 Y21.16355
X15.30024 Y20.96015
X15.40080 Y20.84765
X15.40080 Y14.63077
X10.05575 Y14.63077
X10.05385 Y14.87527
X10.02647 Y14.92646
X9.97529 Y14.95384
X7.80580 Y14.95577
X7.75025 Y14.93890
X7.71342 Y14.89402
X7.70580 Y12.70581
X7.72266 Y12.65023
X7.78629 Y12.60771
X9.97529 Y12.60771
X10.02647 Y12.63510
X10.05385 Y12.68628
X10.05575 Y12.93080
X17.92874 Y12.93080
X19.97080 Y10.88874
X19.97080 Y6.66079
X19.98888 Y6.48659
X20.04778 Y6.30801
X20.13165 Y6.16330
X20.21979 Y6.05975
X22.14979 Y4.12975
X22.27072 Y4.02986
X22.41666 Y3.94967
X22.57546 Y3.89950
X22.75078 Y3.88081
X29.06059 Y3.88127
X29.22615 Y3.89950
X29.38498 Y3.94967
X29.53092 Y4.02988
X29.65183 Y4.12975
X34.12182 Y8.59975
X34.23259 Y8.73693
X34.30940 Y8.88473
X34.35591 Y9.04465
X34.37077 Y9.20079
X34.37077 Y11.95758
X34.47135 Y12.07015
X34.59419 Y12.28287
X34.66739 Y12.50639
X34.69523 Y12.75034
X34.67173 Y12.99473
X34.59419 Y13.23868
X34.47138 Y13.45140
X34.37077 Y13.56395
X34.37077 Y15.51756
X34.47135 Y15.63014
X34.59419 Y15.84286
X34.67173 Y16.08683
X34.69523 Y16.33123
X34.66739 Y16.57517
X34.59794 Y16.78891
X34.47707 Y17.00263
X34.29889 Y17.20054
X34.09896 Y17.34309
X33.88390 Y17.43826
X33.63313 Y17.48987
X33.40844 Y17.48987
X33.16782 Y17.44098
X32.94263 Y17.34309
X32.74270 Y17.20054
X32.57021 Y17.01141
X32.44740 Y16.79869
X32.37148 Y16.56506
X32.34583 Y16.32076
X32.37420 Y16.06638
X32.45215 Y15.83354
X32.57024 Y15.63014
X32.67080 Y15.51764
X32.67080 Y13.56395
X32.57021 Y13.45143
X32.44740 Y13.23870
X32.37148 Y13.00507
X32.34583 Y12.76077
X32.37420 Y12.50639
X32.44740 Y12.28287
X32.57024 Y12.07015
X32.67080 Y11.95765
X32.67080 Y9.55278
X28.69879 Y5.58078
G04 P0 ( dwell for no time -- G64 should not smooth over this point )
G00 Z5.00000 ( retract )

G00 X41.56080 Y1.67078 ( rapid move to begin. )
F300.00000
G01 Z-0.05000
G04 P0 ( dwell for no time -- G64 should not smooth over this point )
F600.00000
X41.56080 Y1.67078
X19.14283 Y1.67078
X17.10077 Y3.71284
X17.10077 Y6.57664
X17.19496 Y6.64781
X17.38340 Y6.85789
X17.52975 Y7.11136
X17.62183 Y7.40005
X17.65025 Y7.69124
X17.61749 Y7.98197
X17.52975 Y8.25019
X17.38343 Y8.50366
X17.19496 Y8.71377
X17.10077 Y8.78489
X17.10077 Y10.68758
X17.20136 Y10.80015
X17.31944 Y11.00355
X17.39740 Y11.23639
X17.42523 Y11.48034
X17.39740 Y11.74518
X17.31944 Y11.97802
X17.20138 Y12.18140
X17.04441 Y12.35656
X16.84708 Y12.50266
X16.60377 Y12.61099
X16.37360 Y12.65933
X16.13844 Y12.65989
X15.88772 Y12.60827
X15.67263 Y12.51310
X15.45719 Y12.35656
X15.30022 Y12.18143
X15.17365 Y11.95892
X15.10149 Y11.73507
X15.07637 Y11.50124
X15.09986 Y11.25684
X15.18216 Y11.00355
X15.30024 Y10.80015
X15.40080 Y10.68765
X15.40080 Y8.78491
X15.30664 Y8.71377
X15.14188 Y8.53079
X10.25286 Y8.53079
X10.05321 Y8.73043
X10.02738 Y8.95517
X9.95418 Y9.17866
X9.83137 Y9.39139
X9.67440 Y9.56655
X9.45896 Y9.72309
X9.24389 Y9.81826
X9.00358 Y9.86932
X8.76843 Y9.86987
X8.52782 Y9.82098
X8.28451 Y9.71265
X8.08718 Y9.56655
X7.93021 Y9.39141
X7.80740 Y9.17869
X7.73148 Y8.94506
X7.70582 Y8.70076
X7.73419 Y8.44638
X7.81215 Y8.21354
X7.93023 Y8.01014
X8.08718 Y7.83500
X8.28451 Y7.68890
X8.50793 Y7.58705
X8.74765 Y7.53386
X8.84781 Y7.53170
X9.29980 Y7.07973
X9.42073 Y6.97986
X9.56670 Y6.89967
X9.72548 Y6.84951
X9.90079 Y6.83081
X15.14182 Y6.83081
X15.30664 Y6.64781
X15.40080 Y6.57671
X15.40080 Y3.36079
X15.41955 Y3.18543
X15.46971 Y3.02661
X15.54993 Y2.88066
X15.64980 Y2.75975
X18.18980 Y0.21975
X18.32704 Y0.10896
X18.45668 Y0.03967
X18.61548 Y-0.01050
X18.79079 Y-0.02919
X42.50486 Y-0.02388
X42.76125 Y0.04650
X42.98335 Y0.19273
X43.14944 Y0.40037
X43.21743 Y0.55318
X43.25546 Y0.72671
X43.26077 Y2.28315
X43.34715 Y2.43387
X43.41502 Y2.64802
X43.43524 Y2.84032
X43.41502 Y3.05353
X43.34715 Y3.26765
X43.24002 Y3.45322
X43.10402 Y3.60509
X42.93207 Y3.73275
X42.72755 Y3.82559
X42.52826 Y3.86849
X42.29333 Y3.86849
X42.09407 Y3.82559
X41.89831 Y3.73844
X41.73308 Y3.61909
X41.58157 Y3.45325
X41.47444 Y3.26768
X41.41091 Y3.07398
X41.38582 Y2.85076
X41.41091 Y2.62757
X41.47444 Y2.43387
X41.56080 Y2.28325
X41.56080 Y1.67078
G04 P0 ( dwell for no time -- G64 should not smooth over this point )
G00 Z5.00000 ( retract )

G00 X44.02874 Y5.94080 ( rapid move to begin. )
F300.00000
G01 Z-0.05000
G04 P0 ( dwell for no time -- G64 should not smooth over this point )
F600.00000
X44.02874 Y5.94080
X46.60803 Y3.36156
X46.55444 Y3.26768
X46.48819 Y3.06387
X46.46582 Y2.85076
X46.48657 Y2.64802
X46.55919 Y2.42455
X46.66160 Y2.24830
X46.81308 Y2.08246
X46.98763 Y1.95836
X47.17407 Y1.87596
X47.39411 Y1.83088
X47.59792 Y1.83141
X47.80755 Y1.87596
X47.99396 Y1.95836
X48.16850 Y2.08246
X48.31341 Y2.24017
X48.43091 Y2.44365
X48.49502 Y2.64802
X48.51524 Y2.86123
X48.49068 Y3.07398
X48.42715 Y3.26765
X48.34077 Y3.41835
X48.34046 Y3.68861
X48.32027 Y3.86511
X48.26835 Y4.02406
X48.20218 Y4.14593
X48.09182 Y4.28177
X44.98182 Y7.39177
X44.86092 Y7.49165
X44.71497 Y7.57186
X44.55614 Y7.62202
X44.38078 Y7.64077
X42.12678 Y7.64077
X41.74655 Y8.02703
X41.62513 Y8.12873
X41.47812 Y8.21047
X41.31790 Y8.26167
X41.14078 Y8.28077
X38.13863 Y8.28077
X37.90896 Y8.45309
X37.69390 Y8.54826
X37.44313 Y8.59987
X37.19766 Y8.59769
X36.96771 Y8.54826
X36.74331 Y8.44834
X36.55270 Y8.31054
X36.37452 Y8.11263
X36.25740 Y7.90869
X36.18148 Y7.67506
X36.15583 Y7.43076
X36.17986 Y7.19683
X36.25740 Y6.95286
X36.37452 Y6.74893
X36.53718 Y6.56500
X36.73452 Y6.41890
X36.97782 Y6.31057
X37.21844 Y6.26170
X37.45359 Y6.26224
X37.68377 Y6.31057
X37.92707 Y6.41890
X38.13863 Y6.58080
X40.78478 Y6.58080
X41.16506 Y6.19449
X41.28650 Y6.09277
X41.45175 Y6.00341
X41.61315 Y5.95596
X41.77078 Y5.94080
X44.02874 Y5.94080
G04 P0 ( dwell for no time -- G64 should not smooth over this point )
G00 Z5.00000 ( retract )

G00 X47.30874 Y6.91080 ( rapid move to begin. )
F300.00000
G01 Z-0.05000
G04 P0 ( dwell for no time -- G64 should not smooth over this point )
F600.00000
X47.30874 Y6.91080
X49.39979 Y4.81974
X49.52072 Y4.71985
X49.66667 Y4.63966
X49.84470 Y4.58566
X50.00078 Y4.57080
X57.82594 Y4.57080
X57.88271 Y4.51101
X58.06452 Y4.37890
X58.29772 Y4.27329
X58.52767 Y4.22386
X58.78360 Y4.22223
X59.02388 Y4.27329
X59.23897 Y4.36846
X59.45441 Y4.52500
X59.61136 Y4.70014
X59.72944 Y4.90354
X59.81174 Y5.15683
X59.83523 Y5.40123
X59.80739 Y5.64517
X59.73419 Y5.86866
X59.61138 Y6.08139
X59.45441 Y6.25655
X59.25708 Y6.40265
X59.02391 Y6.50826
X58.78360 Y6.55931
X58.54844 Y6.55987
X58.29772 Y6.50826
X58.07331 Y6.40834
X57.88304 Y6.27077
X50.35283 Y6.27077
X48.26182 Y8.36177
X48.11702 Y8.47765
X47.96787 Y8.55332
X47.84516 Y8.59022
X47.66866 Y8.61044
X46.42284 Y8.61077
X45.48182 Y9.55179
X45.34463 Y9.66256
X45.19683 Y9.73937
X45.03694 Y9.78588
X44.88078 Y9.80079
X44.27077 Y9.80079
X44.27032 Y11.75057
X44.25208 Y11.91610
X44.20191 Y12.07490
X44.12173 Y12.22085
X44.02843 Y12.33451
X38.45765 Y17.90595
X38.40419 Y18.06866
X38.28707 Y18.27263
X38.10889 Y18.47054
X37.90896 Y18.61309
X37.69390 Y18.70826
X37.45359 Y18.75932
X37.21844 Y18.75987
X36.95794 Y18.70450
X36.74331 Y18.60834
X36.53718 Y18.45655
X36.38021 Y18.28141
X36.25740 Y18.06869
X36.18148 Y17.83506
X36.15636 Y17.60123
X36.17986 Y17.35683
X36.25364 Y17.12264
X36.38682 Y16.89201
X36.55270 Y16.71101
X36.73452 Y16.57890
X36.95794 Y16.47705
X37.21844 Y16.42170
X37.44313 Y16.42170
X37.52306 Y16.43649
X42.57080 Y11.38874
X42.57080 Y9.67965
X42.50496 Y9.60325
X42.38932 Y9.39858
X42.32038 Y9.18468
X42.29582 Y8.95077
X42.32310 Y8.70678
X42.39308 Y8.49322
X42.51068 Y8.28954
X42.66064 Y8.12218
X42.86763 Y7.97178
X43.07316 Y7.88088
X43.31365 Y7.83145
X43.53839 Y7.83198
X43.76846 Y7.88088
X43.97395 Y7.97178
X44.15525 Y8.10081
X44.52874 Y8.10081
X45.46981 Y7.15974
X45.59073 Y7.05985
X45.73668 Y6.97966
X45.89548 Y6.92949
X46.07079 Y6.91080
X47.30874 Y6.91080
G04 P0 ( dwell for no time -- G64 should not smooth over this point )
G00 Z5.00000 ( retract )

G00 X47.74079 Y13.59826 ( rapid move to begin. )
F300.00000
G01 Z-0.05000
G04 P0 ( dwell for no time -- G64 should not smooth over this point )
F600.00000
X47.74079 Y13.59826
X47.74128 Y12.64096
X47.75954 Y12.47543
X47.80970 Y12.31661
X47.88992 Y12.17066
X47.98979 Y12.04975
X49.21877 Y10.82077
X47.78862 Y10.82077
X47.55896 Y10.99309
X47.34389 Y11.08826
X47.10358 Y11.13932
X46.86843 Y11.13987
X46.62782 Y11.09098
X46.38451 Y10.98265
X46.20270 Y10.85054
X46.03681 Y10.66954
X45.91215 Y10.45801
X45.83148 Y10.21506
X45.80582 Y9.97076
X45.83419 Y9.71638
X45.91215 Y9.48354
X46.03681 Y9.27201
X46.20270 Y9.09101
X46.38451 Y8.95890
X46.62782 Y8.85057
X46.84765 Y8.80386
X47.09312 Y8.80170
X47.34387 Y8.85329
X47.55896 Y8.94846
X47.78862 Y9.12080
X50.72080 Y9.12080
X50.92214 Y9.14740
X52.76979 Y7.29975
X52.90573 Y7.18936
X53.07368 Y7.10470
X53.23527 Y7.06168
X53.37078 Y7.05080
X55.34299 Y7.05080
X55.54263 Y6.90846
X55.75772 Y6.81329
X55.98767 Y6.76386
X56.23313 Y6.76170
X56.48388 Y6.81329
X56.69897 Y6.90846
X56.89889 Y7.05101
X57.07136 Y7.24014
X57.19419 Y7.45286
X57.26739 Y7.67638
X57.29523 Y7.92032
X57.27174 Y8.16472
X57.18944 Y8.41801
X57.07138 Y8.62139
X56.89889 Y8.81054
X56.69897 Y8.95309
X56.48391 Y9.04826
X56.24360 Y9.09931
X56.00844 Y9.09987
X55.75772 Y9.04826
X55.54263 Y8.95309
X55.34271 Y8.81054
X55.28599 Y8.75078
X53.72282 Y8.75078
X50.51183 Y11.96177
X50.36700 Y12.07660
X49.44077 Y13.00284
X49.44077 Y13.95079
X49.42588 Y14.10705
X49.37927 Y14.26717
X49.29136 Y14.43138
X49.19126 Y14.55236
X44.54578 Y19.18885
X44.54578 Y20.13579
X44.52894 Y20.19134
X44.48406 Y20.22817
X43.49783 Y20.23579
X43.26183 Y20.47178
X43.12465 Y20.58255
X42.97685 Y20.65936
X42.81695 Y20.70587
X42.67062 Y20.72030
X35.10295 Y20.72045
X34.97524 Y20.70983
X34.81364 Y20.66680
X34.61334 Y20.55992
X33.74880 Y19.71077
X31.78863 Y19.71077
X31.57707 Y19.87265
X31.33377 Y19.98098
X31.10359 Y20.02932
X30.86844 Y20.02987
X30.61771 Y19.97826
X30.39331 Y19.87834
X30.18718 Y19.72655
X30.03021 Y19.55141
X29.91215 Y19.34801
X29.83420 Y19.11517
X29.80583 Y18.86076
X29.83420 Y18.60638
X29.91215 Y18.37354
X30.03024 Y18.17014
X30.13080 Y18.05764
X30.13080 Y11.02395
X30.03021 Y10.91143
X29.90740 Y10.69870
X29.83148 Y10.46507
X29.80636 Y10.21034
X29.83420 Y9.96639
X29.90364 Y9.75265
X30.03024 Y9.53015
X30.18718 Y9.35502
X30.38452 Y9.20892
X30.61771 Y9.10330
X30.84766 Y9.05387
X31.10359 Y9.05225
X31.34387 Y9.10330
X31.57707 Y9.20892
X31.77440 Y9.35502
X31.93135 Y9.53015
X32.05419 Y9.74287
X32.13173 Y9.98684
X32.15523 Y10.23124
X32.12739 Y10.47518
X32.04944 Y10.70802
X31.93138 Y10.91140
X31.83077 Y11.02395
X31.83077 Y18.01080
X34.10079 Y18.01080
X34.27615 Y18.02950
X34.43498 Y18.07966
X34.56465 Y18.14898
X34.69457 Y18.25314
X35.46289 Y19.02081
X42.29580 Y19.02081
X42.29580 Y18.08581
X42.32511 Y18.01510
X42.39580 Y17.98581
X43.34471 Y17.98581
X47.74079 Y13.59826
G04 P0 ( dwell for no time -- G64 should not smooth over this point )
G00 Z5.00000 ( retract )

G00 X47.74079 Y18.16874 ( rapid move to begin. )
F300.00000
G01 Z-0.05000
G04 P0 ( dwell for no time -- G64 should not smooth over this point )
F600.00000
X47.74079 Y18.16874
X47.74128 Y16.99099
X47.75563 Y16.84507
X47.80186 Y16.68561
X47.87826 Y16.53814
X47.98839 Y16.40110
X49.94079 Y14.43987
X49.94079 Y14.36395
X49.84021 Y14.25142
X49.71364 Y14.02892
X49.64148 Y13.80507
X49.61636 Y13.57124
X49.64419 Y13.30639
X49.71740 Y13.08287
X49.84023 Y12.87015
X50.01270 Y12.68102
X50.21262 Y12.53847
X50.42771 Y12.44330
X50.65765 Y12.39387
X50.75783 Y12.39171
X53.48980 Y9.65974
X53.62704 Y9.54894
X53.77479 Y9.47216
X53.93471 Y9.42565
X54.09079 Y9.41079
X57.43079 Y9.41079
X57.60582 Y9.42941
X57.76435 Y9.47940
X57.91012 Y9.55931
X58.03092 Y9.65880
X60.73206 Y12.35171
X60.82360 Y12.35224
X61.06388 Y12.40330
X61.29708 Y12.50891
X61.47889 Y12.64101
X61.64478 Y12.82201
X61.77795 Y13.05265
X61.84740 Y13.26639
X61.87523 Y13.51033
X61.84740 Y13.77517
X61.76944 Y14.00802
X61.65138 Y14.21139
X61.49441 Y14.38655
X61.29708 Y14.53265
X61.05377 Y14.64098
X60.81313 Y14.68988
X60.58844 Y14.68988
X60.34783 Y14.64098
X60.11331 Y14.53834
X59.90719 Y14.38655
X59.75022 Y14.21142
X59.62741 Y13.99869
X59.55139 Y13.76456
X59.53089 Y13.55465
X57.07956 Y11.11077
X54.44284 Y11.11077
X51.96321 Y13.59039
X51.93738 Y13.81518
X51.86418 Y14.03867
X51.74137 Y14.25140
X51.64076 Y14.36395
X51.64076 Y14.79079
X51.62598 Y14.94642
X51.57975 Y15.10593
X51.49255 Y15.26963
X51.39321 Y15.39044
X49.44077 Y17.35172
X49.44077 Y18.52078
X49.42207 Y18.69609
X49.37191 Y18.85490
X49.29172 Y19.00084
X49.19182 Y19.12177
X48.15321 Y20.16038
X48.12738 Y20.38517
X48.05794 Y20.59891
X47.93137 Y20.82139
X47.75888 Y21.01054
X47.55896 Y21.15309
X47.33376 Y21.25098
X47.10358 Y21.29932
X47.01057 Y21.29987
X45.79289 Y22.51003
X45.45957 Y22.76109
X45.25982 Y22.85181
X45.05530 Y22.89527
X44.83595 Y22.89362
X44.64179 Y22.85181
X44.42787 Y22.75077
X34.02111 Y22.75029
X33.87664 Y22.73622
X33.71857 Y22.69088
X33.51212 Y22.56987
X33.38766 Y22.56769
X33.15771 Y22.51826
X32.92452 Y22.41265
X32.72718 Y22.26655
X32.57021 Y22.09141
X32.44740 Y21.87869
X32.37148 Y21.64506
X32.34583 Y21.40076
X32.37420 Y21.14638
X32.44740 Y20.92286
X32.57024 Y20.71014
X32.74270 Y20.52101
X32.94263 Y20.37846
X33.15771 Y20.28329
X33.40844 Y20.23170
X33.64359 Y20.23224
X33.87377 Y20.28057
X34.11707 Y20.38890
X34.31440 Y20.53500
X34.47135 Y20.71014
X34.59419 Y20.92286
X34.63632 Y21.05080
X44.42780 Y21.05080
X44.65190 Y20.94704
X44.83595 Y20.90793
X44.99599 Y20.90574
X45.81077 Y20.09556
X45.83140 Y19.88692
X45.90740 Y19.65286
X46.03023 Y19.44014
X46.18718 Y19.26500
X46.38451 Y19.11890
X46.60793 Y19.01705
X46.84765 Y18.96386
X46.94783 Y18.96170
X47.74079 Y18.16874
G04 P0 ( dwell for no time -- G64 should not smooth over this point )
G00 Z5.00000 ( retract )

G00 X49.94079 Y23.13081 ( rapid move to begin. )
F300.00000
G01 Z-0.05000
G04 P0 ( dwell for no time -- G64 should not smooth over this point )
F600.00000
X49.94079 Y23.13081
X49.94079 Y19.36394
X49.84021 Y19.25141
X49.72215 Y19.04801
X49.64148 Y18.80506
X49.61636 Y18.55032
X49.64419 Y18.30638
X49.71740 Y18.08286
X49.84023 Y17.87014
X49.99718 Y17.69500
X50.21262 Y17.53846
X50.42773 Y17.44329
X50.51541 Y17.42411
X54.20370 Y13.73591
X54.18584 Y13.56077
X54.20987 Y13.32684
X54.28366 Y13.09265
X54.41025 Y12.87015
X54.58272 Y12.68102
X54.78264 Y12.53847
X54.99773 Y12.44330
X55.22767 Y12.39387
X55.47314 Y12.39171
X55.72389 Y12.44330
X55.93897 Y12.53847
X56.16864 Y12.71081
X56.68060 Y12.71127
X56.84616 Y12.72951
X57.00499 Y12.77967
X57.15094 Y12.85989
X57.27184 Y12.95976
X59.52289 Y15.21081
X59.89294 Y15.21081
X60.12263 Y15.03847
X60.33772 Y14.94330
X60.58844 Y14.89171
X60.82360 Y14.89224
X61.05377 Y14.94058
X61.28034 Y15.03921
X62.13081 Y14.18874
X62.13081 Y10.82423
X60.59484 Y9.29621
X60.50097 Y9.18240
X60.42022 Y9.03607
X60.36967 Y8.87671
X60.35441 Y8.73795
X60.25022 Y8.62141
X60.12741 Y8.40869
X60.04986 Y8.16472
X60.02583 Y7.93076
X60.04986 Y7.69683
X60.13216 Y7.44354
X60.25024 Y7.24014
X60.35080 Y7.12764
X60.35080 Y4.98142
X59.07742 Y3.70077
X51.05577 Y3.70077
X51.05387 Y3.79529
X51.03893 Y3.83133
X51.01135 Y3.85891
X50.95577 Y3.87578
X49.08628 Y3.87385
X49.02266 Y3.83133
X49.00579 Y3.77578
X49.00579 Y2.66778
X47.98880 Y1.65076
X46.59284 Y1.65076
X45.85919 Y2.38437
X45.95068 Y2.62757
X45.97524 Y2.84032
X45.95502 Y3.05353
X45.89091 Y3.25790
X45.78002 Y3.45322
X45.64402 Y3.60509
X45.47207 Y3.73275
X45.31078 Y3.80692
X45.31047 Y4.05861
X45.29272 Y4.22495
X45.23836 Y4.39407
X45.14994 Y4.54827
X44.20184 Y5.51177
X44.08093 Y5.61164
X43.91685 Y5.69935
X43.75696 Y5.74585
X43.61063 Y5.76028
X41.56080 Y5.76076
X41.38549 Y5.74202
X41.22666 Y5.69185
X41.08071 Y5.61164
X40.95981 Y5.51177
X39.14881 Y3.70077
X21.17283 Y3.70077
X19.63407 Y5.23879
X19.50379 Y5.34362
X19.33549 Y5.42752
X19.17379 Y5.47029
X19.00682 Y5.47959
X18.82084 Y5.45182
X18.64586 Y5.38289
X18.51436 Y5.29749
X18.38726 Y5.17346
X18.28347 Y5.01667
X18.21761 Y4.84055
X18.19198 Y4.66483
X18.20128 Y4.49782
X18.24403 Y4.33615
X18.32272 Y4.17692
X18.43979 Y4.02975
X20.22706 Y2.24314
X20.35703 Y2.13895
X20.50478 Y2.06217
X20.66470 Y2.01566
X20.82078 Y2.00080
X39.51058 Y2.00126
X39.67614 Y2.01950
X39.83497 Y2.06966
X39.96463 Y2.13898
X40.09456 Y2.24314
X41.91287 Y4.06079
X43.24875 Y4.06079
X43.61080 Y3.69874
X43.61129 Y2.57096
X43.62571 Y2.42463
X43.67222 Y2.26473
X43.75993 Y2.10065
X43.85980 Y1.97974
X45.64707 Y0.19313
X45.76074 Y0.09984
X45.90669 Y0.01965
X46.06549 Y-0.03051
X46.23102 Y-0.04875
X48.34079 Y-0.04921
X48.51615 Y-0.03051
X48.67498 Y0.01965
X48.82093 Y0.09987
X48.94183 Y0.19974
X50.56786 Y1.82580
X50.99405 Y1.83339
X51.04818 Y1.88752
X51.05577 Y2.00080
X59.43079 Y2.00080
X59.60676 Y2.01962
X59.74793 Y2.06260
X59.89612 Y2.13997
X60.03353 Y2.25142
X61.80353 Y4.03143
X61.89004 Y4.13341
X61.97391 Y4.27814
X62.03274 Y4.45673
X62.05077 Y4.63079
X62.05077 Y7.12756
X62.15136 Y7.24014
X62.27419 Y7.45286
X62.34739 Y7.67638
X62.37523 Y7.92032
X62.34739 Y8.18517
X62.27419 Y8.40869
X62.21562 Y8.51118
X63.58016 Y9.86805
X63.69098 Y10.00376
X63.77607 Y10.17147
X63.81953 Y10.33297
X63.83078 Y10.47079
X63.83078 Y14.54078
X63.81209 Y14.71609
X63.76192 Y14.87489
X63.68173 Y15.02084
X63.58183 Y15.14177
X62.06182 Y16.66178
X61.94092 Y16.76166
X61.77683 Y16.84936
X61.63614 Y16.89203
X61.51283 Y16.90611
X61.29708 Y17.07265
X61.06391 Y17.17827
X60.82360 Y17.22932
X60.58844 Y17.22988
X60.33772 Y17.17827
X60.12263 Y17.08309
X59.89297 Y16.91078
X59.17079 Y16.91078
X59.01469 Y16.89584
X58.85479 Y16.84936
X58.70699 Y16.77255
X58.56980 Y16.66178
X56.31881 Y14.41078
X56.16864 Y14.41078
X55.93897 Y14.58310
X55.73367 Y14.67451
X55.64886 Y14.69476
X51.94884 Y18.39470
X51.96522 Y18.57123
X51.93738 Y18.81517
X51.85943 Y19.04801
X51.74137 Y19.25139
X51.64076 Y19.36394
X51.64076 Y23.13081
X58.16079 Y23.13081
X58.89896 Y23.20782
X59.62507 Y23.44203
X60.27684 Y23.81833
X60.82873 Y24.31452
X61.27280 Y24.92199
X61.58461 Y25.61831
X61.74163 Y26.36494
X61.73945 Y27.11741
X61.58461 Y27.84322
X61.28324 Y28.52145
X60.84272 Y29.13151
X60.27684 Y29.64322
X59.62507 Y30.01952
X58.89896 Y30.25373
X58.16079 Y30.33079
X25.86078 Y30.33079
X25.49494 Y30.31162
X25.11231 Y30.25210
X24.75847 Y30.15726
X24.40632 Y30.02328
X24.06081 Y29.84845
X23.74478 Y29.64324
X23.44455 Y29.39869
X23.17889 Y29.13151
X22.94834 Y28.84680
X22.74313 Y28.53077
X22.57206 Y28.19503
X22.43701 Y27.84322
X22.33947 Y27.47926
X22.27996 Y27.09664
X22.26078 Y26.73080
X22.26078 Y9.71079
X22.34219 Y8.95217
X22.57206 Y8.24651
X22.95494 Y7.58662
X23.46007 Y7.02886
X24.05202 Y6.59879
X24.74836 Y6.28698
X25.49494 Y6.12995
X26.23710 Y6.13049
X26.96314 Y6.28428
X27.66959 Y6.59879
X28.26153 Y7.02886
X28.76666 Y7.58662
X29.14954 Y8.24651
X29.37941 Y8.95217
X29.46024 Y9.70033
X29.46077 Y12.18922
X29.51419 Y12.28287
X29.58739 Y12.50639
X29.61523 Y12.75034
X29.58739 Y13.01518
X29.51419 Y13.23868
X29.46077 Y13.33230
X29.46077 Y23.13081
X49.94079 Y23.13081
G04 P0 ( dwell for no time -- G64 should not smooth over this point )
G00 Z5.00000 ( retract )

G00 X21.06119 Y32.02081 ( rapid move to begin. )
F300.00000
G01 Z-0.05000
G04 P0 ( dwell for no time -- G64 should not smooth over this point )
F600.00000
X21.06119 Y32.02081
X58.16079 Y32.02081
X58.91941 Y32.10216
X59.62507 Y32.33203
X60.01679 Y32.55759
X62.13081 Y30.43923
X62.13081 Y21.24176
X60.55837 Y19.66239
X60.35885 Y19.61938
X60.16332 Y19.53173
X60.05103 Y19.45078
X56.12117 Y19.45078
X55.94878 Y19.57806
X55.73367 Y19.67450
X55.49394 Y19.72769
X55.24845 Y19.72987
X54.99773 Y19.67826
X54.77332 Y19.57834
X54.58272 Y19.44054
X54.41022 Y19.25141
X54.29217 Y19.04801
X54.21149 Y18.80506
X54.18637 Y18.57123
X54.21421 Y18.30638
X54.28742 Y18.08286
X54.40453 Y17.87893
X54.58272 Y17.68101
X54.76453 Y17.54890
X54.98795 Y17.44705
X55.22767 Y17.39386
X55.48360 Y17.39224
X55.72389 Y17.44329
X55.95708 Y17.54890
X56.13890 Y17.68101
X56.20463 Y17.75081
X60.05090 Y17.75081
X60.17265 Y17.66508
X60.35885 Y17.58218
X60.57811 Y17.53333
X60.81316 Y17.53168
X61.02286 Y17.57573
X61.24707 Y17.67552
X61.41196 Y17.79533
X61.56388 Y17.96079
X61.68283 Y18.16356
X61.74958 Y18.36719
X61.76167 Y18.46160
X63.58315 Y20.29104
X63.69334 Y20.42810
X63.76974 Y20.57557
X63.81219 Y20.71590
X63.83078 Y20.89078
X63.83078 Y30.79079
X63.81214 Y30.96587
X63.76210 Y31.12452
X63.69296 Y31.25403
X63.58247 Y31.39117
X61.22807 Y33.75042
X61.28324 Y33.83010
X61.58461 Y34.50831
X61.74163 Y35.25494
X61.74163 Y35.98664
X61.58730 Y36.72311
X61.27280 Y37.42956
X60.82873 Y38.03703
X60.27684 Y38.53322
X59.62507 Y38.90952
X58.91941 Y39.13939
X58.16079 Y39.22079
X17.52079 Y39.22079
X16.76222 Y39.13939
X16.05655 Y38.90952
X15.41358 Y38.53893
X14.85290 Y38.03703
X14.40314 Y37.42077
X14.09702 Y36.73322
X13.93997 Y35.98664
X13.94053 Y35.24447
X14.09433 Y34.51844
X14.40883 Y33.81199
X14.83890 Y33.22004
X14.89750 Y33.16439
X12.89235 Y31.15921
X12.70561 Y30.93247
X10.59235 Y28.81921
X10.25641 Y28.40530
X10.00028 Y27.90258
X9.86172 Y27.37710
X9.83546 Y26.83428
X9.91941 Y26.30781
X10.09553 Y25.84754
X10.04877 Y25.80078
X9.43864 Y25.80078
X9.20897 Y25.97309
X8.99391 Y26.06827
X8.75360 Y26.11932
X8.51844 Y26.11988
X8.27783 Y26.07098
X8.04331 Y25.96834
X7.85271 Y25.83055
X7.68022 Y25.64142
X7.55741 Y25.42869
X7.48421 Y25.20517
X7.45637 Y24.94033
X7.48421 Y24.69639
X7.56216 Y24.46355
X7.68024 Y24.26014
X7.83719 Y24.08501
X8.05263 Y23.92847
X8.26772 Y23.83330
X8.49767 Y23.78387
X8.75360 Y23.78224
X8.99388 Y23.83330
X9.20897 Y23.92847
X9.43864 Y24.10081
X10.41059 Y24.10127
X10.55692 Y24.11567
X10.71684 Y24.16217
X10.86464 Y24.23898
X10.99456 Y24.34315
X11.29753 Y24.64549
X11.76812 Y24.46718
X12.28432 Y24.38542
X12.82715 Y24.41168
X13.35262 Y24.55024
X13.83781 Y24.79499
X14.26926 Y25.14231
X16.56925 Y27.44231
X16.79435 Y27.70740
X20.85926 Y31.77232
X21.06119 Y32.02081
G04 P0 ( dwell for no time -- G64 should not smooth over this point )
G00 Z5.00000 ( retract )

G00 X7.15078 Y23.26078 ( rapid move to begin. )
F300.00000
G01 Z-0.05000
G04 P0 ( dwell for no time -- G64 should not smooth over this point )
F600.00000
X7.15078 Y23.26078
X7.15078 Y26.64081
X8.02319 Y26.64081
X8.11514 Y26.57672
X8.30635 Y26.49219
X8.53150 Y26.44602
X8.74054 Y26.44655
X8.95527 Y26.49219
X9.14646 Y26.57672
X9.32525 Y26.70390
X9.48024 Y26.87360
X9.59375 Y27.07347
X9.65784 Y27.27246
X9.68024 Y27.48033
X9.65514 Y27.71922
X9.58524 Y27.92717
X9.48027 Y28.10794
X9.32525 Y28.27766
X9.16457 Y28.39440
X8.96503 Y28.48561
X8.74054 Y28.53501
X8.53150 Y28.53557
X8.30635 Y28.48937
X8.10582 Y28.40009
X8.02330 Y28.34078
X7.15078 Y28.34078
X7.15078 Y28.54144
X11.68567 Y33.08527
X12.15699 Y33.67186
X12.48862 Y34.32410
X12.68481 Y35.05057
X12.72458 Y35.82283
X12.60406 Y36.56560
X12.33172 Y37.26708
X11.91948 Y37.89661
X11.38539 Y38.42666
X10.76231 Y38.82986
X10.04920 Y39.10111
X9.31603 Y39.21599
X8.55421 Y39.17375
X7.82812 Y38.97624
X7.17646 Y38.64348
X6.59071 Y38.17109
X0.99636 Y32.56681
X0.56202 Y32.03668
X0.22842 Y31.41578
X0.02222 Y30.74182
X-0.04920 Y30.03079
X-0.04920 Y12.00078
X0.02786 Y11.26261
X0.26207 Y10.53650
X0.64495 Y9.87660
X1.15008 Y9.31885
X1.74203 Y8.88877
X2.43837 Y8.57696
X3.18495 Y8.41994
X3.92711 Y8.42047
X4.66328 Y8.57696
X5.34149 Y8.87833
X5.95155 Y9.31885
X6.46325 Y9.88473
X6.75604 Y10.39080
X8.07293 Y10.39080
X8.28451 Y10.22890
X8.51771 Y10.12329
X8.76843 Y10.07170
X9.01392 Y10.07386
X9.25365 Y10.12705
X9.47707 Y10.22890
X9.65888 Y10.36101
X9.83706 Y10.55893
X9.95418 Y10.76286
X10.02738 Y10.98638
X10.05522 Y11.25123
X10.02738 Y11.49517
X9.94943 Y11.72801
X9.83137 Y11.93139
X9.65888 Y12.12054
X9.45896 Y12.26309
X9.24389 Y12.35826
X8.99312 Y12.40987
X8.76843 Y12.40987
X8.52782 Y12.36098
X8.29330 Y12.25834
X8.07295 Y12.09077
X7.14974 Y12.09077
X7.15076 Y21.56081
X7.82294 Y21.56081
X8.05263 Y21.38847
X8.26772 Y21.29330
X8.49767 Y21.24387
X8.75360 Y21.24224
X8.99388 Y21.29330
X9.22708 Y21.39891
X9.42441 Y21.54501
X9.58136 Y21.72014
X9.70795 Y21.94265
X9.77740 Y22.15639
X9.80523 Y22.40033
X9.77740 Y22.66517
X9.70419 Y22.88867
X9.58138 Y23.10139
X9.40889 Y23.29055
X9.20897 Y23.43309
X8.99391 Y23.52827
X8.75360 Y23.57932
X8.49767 Y23.57770
X8.26772 Y23.52827
X8.05263 Y23.43309
X7.82297 Y23.26078
X7.15078 Y23.26078

G04 P0 ( dwell for no time -- G64 should not smooth over this point )
G00 Z10.000 ( retract )

M5 ( Spindle off. )
M9 ( Coolant off. )
M2 ( Program end. )

