( pcb2gcode 1.3.2 )
( Software-independent Gcode )

G94 ( Millimeters per minute feed rate. )
G21 ( Units == Millimeters. )

G90 ( Absolute coordinates. )
S10000 ( RPM spindle speed. )
G64 P0.10000 ( set maximum deviation from commanded toolpath )
F1000.00000 ( Feedrate. )

F1000.00000 ( Feedrate. )
M3 ( Spindle on clockwise. )
G04 P0 ( dwell for no time -- G64 should not smooth over this point )
G00 Z2.00000 ( retract )

G00 X15.89839 Y5.73689 ( rapid move to begin. )
F500.00000
G01 Z-0.20000
G04 P0 ( dwell for no time -- G64 should not smooth over this point )
F1000.00000
X15.89839 Y5.73689
X15.95490 Y7.72579
X15.82508 Y7.91245
X16.76343 Y8.85080
X26.97644 Y8.85080
X33.96947 Y1.93984
X40.49432 Y1.87378
X40.96168 Y2.12902
X44.32515 Y5.36275
X44.23991 Y11.20637
X44.38492 Y12.05489
X44.04270 Y12.63677
X43.40753 Y12.91958
X42.72747 Y12.77505
X42.27174 Y12.27701
X42.16496 Y11.80076
X42.33994 Y11.20645
X42.33994 Y6.39516
X42.19290 Y6.04718
X39.89651 Y3.75076
X34.76340 Y3.75076
X28.04167 Y10.47249
X27.38955 Y10.74981
X15.98863 Y10.67005
X14.05176 Y8.80432
X13.87992 Y7.92332
X13.70492 Y7.72579
X13.76352 Y5.73438
X15.89839 Y5.73689
G04 P0 ( dwell for no time -- G64 should not smooth over this point )
G00 Z2.00000 ( retract )

G00 X15.95493 Y6.11235 ( rapid move to begin. )
F500.00000
G01 Z-0.20000
G04 P0 ( dwell for no time -- G64 should not smooth over this point )
F1000.00000
X15.95493 Y6.11235
X15.91993 Y5.50077
X13.49194 Y5.50077
X8.22433 Y10.77470
X8.90711 Y10.86835
X9.46144 Y11.28707
X9.66492 Y11.93076
X9.43688 Y12.60828
X9.08377 Y12.91455
X8.27948 Y13.02034
X7.26990 Y13.60136
X7.26990 Y15.99458
X8.12799 Y15.79308
X8.90711 Y15.94835
X9.46144 Y16.36707
X9.70635 Y17.07126
X9.74120 Y17.73590
X9.49614 Y18.39854
X8.29888 Y19.65594
X12.58734 Y24.47775
X13.32821 Y25.77879
X13.49191 Y26.55592
X13.31437 Y28.10456
X12.55808 Y29.39666
X11.98323 Y29.91393
X10.57792 Y30.53913
X8.99898 Y30.52973
X7.63488 Y29.91264
X7.04565 Y29.38012
X0.37530 Y21.75294
X-0.08299 Y20.28469
X-0.04377 Y12.04125
X0.56517 Y10.67353
X1.07937 Y10.09594
X1.75079 Y9.61156
X10.45641 Y0.89593
X11.35237 Y0.30081
X12.36992 Y0.10078
X16.39082 Y0.10187
X17.48680 Y0.34368
X18.38962 Y1.01036
X18.93028 Y1.94688
X19.05622 Y2.53944
X18.81989 Y3.90255
X18.79150 Y6.08154
X18.39764 Y7.25835
X17.73709 Y7.86320
X16.82610 Y7.78456
X16.35173 Y7.27702
X15.95493 Y6.11235
G04 P0 ( dwell for no time -- G64 should not smooth over this point )
G00 Z2.00000 ( retract )

G00 X20.63991 Y23.22080 ( rapid move to begin. )
F500.00000
G01 Z-0.20000
G04 P0 ( dwell for no time -- G64 should not smooth over this point )
F1000.00000
X20.63991 Y23.22080
X57.58083 Y23.22189
X59.08352 Y23.55016
X60.32276 Y24.46126
X61.07135 Y25.75788
X61.24076 Y27.28663
X60.77373 Y28.75211
X60.29477 Y29.41134
X59.08352 Y30.29137
X57.58085 Y30.61967
X17.91045 Y30.53448
X16.54273 Y29.92554
X15.96514 Y29.41134
X15.18856 Y28.08366
X15.01911 Y26.55493
X15.23992 Y25.64254
X15.23992 Y23.20907
X10.53553 Y18.42129
X10.13099 Y17.35234
X10.10581 Y16.78863
X10.34803 Y15.84231
X9.92649 Y15.42077
X8.44326 Y15.59069
X7.80346 Y15.31998
X7.43627 Y14.68399
X7.61844 Y13.82707
X7.97747 Y13.49649
X8.44326 Y13.35087
X9.13772 Y13.52080
X10.48585 Y13.53614
X10.86350 Y13.69258
X11.69146 Y14.49885
X12.63781 Y14.25663
X13.20152 Y14.28181
X14.27047 Y14.68635
X20.17321 Y20.57493
X20.59093 Y21.58344
X20.63991 Y23.22080
G04 P0 ( dwell for no time -- G64 should not smooth over this point )
G00 Z2.00000 ( retract )

G00 X48.05651 Y1.75077 ( rapid move to begin. )
F500.00000
G01 Z-0.20000
G04 P0 ( dwell for no time -- G64 should not smooth over this point )
F1000.00000
X48.05651 Y1.75077
X31.68342 Y1.75077
X27.96560 Y5.46851
X27.97184 Y6.10369
X27.62821 Y7.15076
X26.89321 Y7.97194
X26.36860 Y8.27483
X25.28991 Y8.50079
X21.82926 Y8.44504
X21.25309 Y8.25784
X20.51509 Y7.74542
X20.00658 Y7.92071
X19.36610 Y7.78456
X19.01298 Y7.47829
X18.80625 Y7.01400
X18.88223 Y6.34319
X19.15718 Y5.96475
X19.68365 Y5.68360
X20.04308 Y4.43321
X20.37826 Y3.97931
X21.25309 Y3.34370
X22.34905 Y3.10189
X25.31081 Y3.10189
X26.36860 Y3.32671
X27.01129 Y3.73595
X30.61822 Y0.12903
X31.28992 Y-0.14920
X48.65433 Y-0.12622
X49.12169 Y0.12903
X53.70212 Y4.70946
X54.10275 Y4.89079
X57.92711 Y4.77834
X58.58763 Y5.38317
X58.58766 Y6.29833
X58.13998 Y6.80364
X57.67753 Y6.95957
X56.96219 Y6.79076
X53.08277 Y6.86320
X52.68239 Y6.62200
X52.35287 Y6.04713
X48.05651 Y1.75077
G04 P0 ( dwell for no time -- G64 should not smooth over this point )
G00 Z2.00000 ( retract )

G00 X56.19229 Y9.33076 ( rapid move to begin. )
F500.00000
G01 Z-0.20000
G04 P0 ( dwell for no time -- G64 should not smooth over this point )
F1000.00000
X56.19229 Y9.33076
X54.39991 Y11.11544
X54.55360 Y12.01399
X54.20270 Y12.63677
X53.35325 Y12.92070
X52.68239 Y12.62199
X52.32496 Y11.80076
X52.58109 Y10.33848
X55.14418 Y7.69444
X55.63450 Y7.44606
X56.96211 Y7.43079
X57.65660 Y7.26086
X58.12243 Y7.40648
X58.48144 Y7.73706
X58.65492 Y8.63488
X58.13998 Y9.34364
X57.46325 Y9.50069
X56.96219 Y9.33076
X56.19229 Y9.33076
G04 P0 ( dwell for no time -- G64 should not smooth over this point )
G00 Z2.00000 ( retract )

G00 X56.60994 Y14.58079 ( rapid move to begin. )
F500.00000
G01 Z-0.20000
G04 P0 ( dwell for no time -- G64 should not smooth over this point )
F1000.00000
X56.60994 Y14.58079
X56.45017 Y9.91923
X56.63493 Y9.79578
X58.56147 Y9.81100
X58.68491 Y9.99578
X58.68491 Y11.84577
X58.50991 Y12.04328
X58.50991 Y14.71914
X59.73472 Y15.28739
X60.75283 Y16.41320
X61.08425 Y17.15762
X61.24076 Y18.64662
X61.07135 Y19.44364
X60.30957 Y20.75652
X59.71717 Y21.28553
X58.34946 Y21.89446
X24.34902 Y21.97966
X22.84638 Y21.65136
X21.63513 Y20.77133
X21.15616 Y20.11210
X20.69022 Y18.66752
X20.69350 Y17.87331
X21.16569 Y16.43075
X22.17889 Y15.30057
X22.88455 Y14.89316
X24.36992 Y14.58079
X32.74994 Y14.58079
X32.74994 Y8.80079
X33.06236 Y7.31537
X33.97419 Y6.05114
X35.00571 Y5.41464
X35.46253 Y4.67293
X36.27251 Y4.31228
X36.91346 Y4.37421
X37.43736 Y4.67293
X37.89413 Y5.41459
X38.94053 Y6.06595
X39.83756 Y7.31537
X40.14993 Y8.80079
X40.14993 Y14.58079
X56.60994 Y14.58079

G04 P0 ( dwell for no time -- G64 should not smooth over this point )
G00 Z10.000 ( retract )

M5 ( Spindle off. )
M9 ( Coolant off. )
M2 ( Program end. )

