( pcb2gcode 1.3.2 )
( Software-independent Gcode )

( This file uses only one drill bit. Forced by 'onedrill' option )

G94       (Millimeters per minute feed rate.)
G21       (Units == Millimeters.)
G91.1     (Incremental arc distance mode.)
G90       (Absolute coordinates.)
S10000     (RPM spindle speed.)

G00 Z10.00000 (Retract)
T1
M5      (Spindle stop.)
(MSG, Change tool bit to drill size 0.85000 mm)
M6      (Tool change.)
M0      (Temporary machine stop.)
M3      (Spindle on clockwise.)

G81 R2.00000 Z-2.00000 F500.00000 X8.52280 Y11.93280
X8.52280 Y14.47280
X8.52280 Y17.01280
X9.79280 Y26.91880
X18.68280 Y26.91880
X27.35480 Y25.34480
X27.35480 Y20.26480
X38.35480 Y20.26480
X38.35480 Y25.34480
X49.35480 Y25.34480
X49.35480 Y20.26480
X57.54480 Y18.28280
X57.54480 Y10.91680
X57.54480 Y8.37680
X57.54480 Y5.83680
X53.43480 Y5.80480
X53.43480 Y11.80480
X43.27480 Y11.80480
X43.27480 Y5.80480
X36.43480 Y5.80480
X26.27480 Y5.80480
X19.89480 Y6.80480
X17.35480 Y6.80480
X14.81480 Y6.80480
X57.54480 Y26.91880

G00 Z10.000 ( All done -- retract )

M5      (Spindle off.)
M9      (Coolant off.)
M2      (Program end.)

