( pcb2gcode 1.3.2 )
( Software-independent Gcode )

( This file uses 6 drill bit sizes. )
( Bit sizes: [0.762mm] [0.85mm] [0.95mm] [1.05mm] [1.55mm] [2.55mm] )

G94       (Millimeters per minute feed rate.)
G21       (Units == Millimeters.)
G91.1     (Incremental arc distance mode.)
G90       (Absolute coordinates.)
S10000     (RPM spindle speed.)

G00 Z10.00000 (Retract)
T1
M5      (Spindle stop.)
(MSG, Change tool bit to drill size 0.76200 mm)
M6      (Tool change.)
M0      (Temporary machine stop.)
M3      (Spindle on clockwise.)

G81 R5.00000 Z-2.50000 F1000.00000 X44.94880 Y21.90480
X44.94880 Y24.69880

G00 Z10.00000 (Retract)
T2
M5      (Spindle stop.)
(MSG, Change tool bit to drill size 0.85000 mm)
M6      (Tool change.)
M0      (Temporary machine stop.)
M3      (Spindle on clockwise.)

G81 R5.00000 Z-2.50000 F1000.00000 X16.24680 Y11.49080
X16.24680 Y21.65080
X8.62680 Y22.41280
X8.62680 Y24.95280
X8.62680 Y27.49280
X26.66080 Y28.50880
X26.66080 Y33.58880
X37.83680 Y33.33480
X37.83680 Y28.25480
X33.51880 Y21.39680
X30.97880 Y18.85680
X33.51880 Y16.31680
X33.51880 Y12.76080
X30.97880 Y10.22080
X28.43880 Y12.76080
X37.32880 Y17.58680
X43.42480 Y19.11080
X46.98080 Y20.12680
X50.79080 Y18.56280
X55.36280 Y18.56280
X55.36280 Y13.56280
X50.79080 Y13.56280
X46.98080 Y9.96680
X43.42480 Y8.95080
X42.40880 Y2.85480
X44.94880 Y2.85480
X47.48880 Y2.85480
X50.02880 Y2.85480
X56.12480 Y7.93480
X58.66480 Y5.39480
X61.20480 Y7.93480
X60.69680 Y13.52280
X60.69680 Y16.06280
X50.28280 Y28.25480
X50.28280 Y33.33480
X37.32880 Y7.42680

G00 Z10.00000 (Retract)
T3
M5      (Spindle stop.)
(MSG, Change tool bit to drill size 0.95000 mm)
M6      (Tool change.)
M0      (Temporary machine stop.)
M3      (Spindle on clockwise.)

G81 R5.00000 Z-2.50000 F1000.00000 X60.69680 Y18.60280

G00 Z10.00000 (Retract)
T4
M5      (Spindle stop.)
(MSG, Change tool bit to drill size 1.05000 mm)
M6      (Tool change.)
M0      (Temporary machine stop.)
M3      (Spindle on clockwise.)

G81 R5.00000 Z-2.50000 F1000.00000 X8.88080 Y8.69680
X8.88080 Y11.23680
X8.88080 Y13.77680

G00 Z10.00000 (Retract)
T5
M5      (Spindle stop.)
(MSG, Change tool bit to drill size 1.55000 mm)
M6      (Tool change.)
M0      (Temporary machine stop.)
M3      (Spindle on clockwise.)

G81 R5.00000 Z-2.50000 F1000.00000 X16.24680 Y7.68080
X26.40680 Y7.68080

G00 Z10.00000 (Retract)
T6
M5      (Spindle stop.)
(MSG, Change tool bit to drill size 2.55000 mm)
M6      (Tool change.)
M0      (Temporary machine stop.)
M3      (Spindle on clockwise.)

G81 R5.00000 Z-2.50000 F1000.00000 X9.13480 Y35.62080
X17.51680 Y35.62080
X58.15680 Y35.62080
X58.15680 Y26.73080

G00 Z10.000 ( All done -- retract )

M5      (Spindle off.)
M9      (Coolant off.)
M2      (Program end.)

